X: 4
T: Wrong Foot Forward
R: slip jig
M: 9/8
L: 1/8
K: Emin
E2GB efg | d2AG FGA | GE BG EFG | FD AF DEF |
E2GB efg | d2AG FGA | G2EF GFD |1 D2AG FGA :|2 D2AG FED ||
A2 ce abg | c2 ef gfd | EF GB efd | A2  de efa |
A2 ce abg | c2 ef gfd | EF GB efd | d2 (3BAG A2E :||


Tune 5411	Setting 25867

